packages/icons/svg/24/Announcement.svg

<svg width="24" height="24" viewBox="0 0 24 24" fill="none" xmlns="http://www.w3.org/2000/svg">
<path fill-rule="evenodd" clip-rule="evenodd" d="M11.3659 5.85776L18.6376 3.02988C19.2931 2.77495 20 3.25853 20 3.96189V7.12606C21.7252 7.5701 23 9.1362 23 11C23 12.8639 21.7252 14.43 20 14.874V18.0382C20 18.7416 19.2931 19.2251 18.6376 18.9702L11.3659 16.1423C11.123 16.0479 10.8688 15.9855 10.6098 15.9567L10 15.8889L10 6.11115L10.6098 6.04339C10.8688 6.01462 11.123 5.95221 11.3659 5.85776ZM21 11C21 10.2598 20.5978 9.61342 20 9.26761V12.7325C20.5978 12.3867 21 11.7403 21 11Z" fill="#858585"/>
<path d="M8 6.33338L4.6687 6.70352C3.14941 6.87233 2 8.15652 2 9.68517V12.3149C2 13.8436 3.14941 15.1278 4.66871 15.2966L8 15.6667L8 6.33338Z" fill="#858585"/>
<path d="M4.58584 17.2862L5.48805 20.2936C5.79191 21.3064 6.72417 22.0001 7.78163 22.0001C9.38566 22.0001 10.5361 20.4538 10.0752 18.9174L9.75861 17.8621L4.66871 17.2966C4.64096 17.2935 4.61334 17.29 4.58584 17.2862Z" fill="#858585"/>
</svg>

<svg width="24" height="24" fill="none" xmlns="http://www.w3.org/2000/svg" viewBox="0 0 24 24"><path fill-rule="evenodd" clip-rule="evenodd" d="M11.366 5.858l7.272-2.828A1 1 0 0120 3.962v3.164a4.002 4.002 0 010 7.748v3.164a1 1 0 01-1.362.932l-7.272-2.828a3.004 3.004 0 00-.756-.185l-.61-.068V6.11l.61-.068a3 3 0 00.756-.185zM21 11a2 2 0 00-1-1.732v3.464A2 2 0 0021 11z" fill="currentColor"></path><path d="M8 6.333l-3.331.37A3 3 0 002 9.686v2.63a3 3 0 002.669 2.982l3.331.37V6.333zM4.586 17.286l.902 3.008a2.395 2.395 0 004.587-1.377l-.316-1.055-5.09-.565a3.204 3.204 0 01-.083-.01z" fill="currentColor"></path></svg>
